svg/color/mantleusdt.svg

<svg width="64" height="65" viewBox="0 0 64 65" fill="none" xmlns="http://www.w3.org/2000/svg">
<rect y="0.303711" width="64" height="64" rx="32" fill="white"/>
<rect x="0.5" y="0.803711" width="63" height="63" rx="31.5" stroke="#070B14" stroke-opacity="0.15"/>
<path fill-rule="evenodd" clip-rule="evenodd" d="M16.7884 11.6288L8.03598 30.0131C8.00268 30.0815 7.99212 30.1587 8.00586 30.2336C8.0196 30.3084 8.05692 30.3768 8.11235 30.4289L31.7504 53.0798C31.8175 53.1442 31.907 53.1801 32 53.1801C32.093 53.1801 32.1825 53.1442 32.2496 53.0798L55.8877 30.4303C55.9431 30.3782 55.9804 30.3098 55.9941 30.235C56.0079 30.1602 55.9973 30.0829 55.964 30.0145L47.2116 11.6302C47.1834 11.5685 47.138 11.5162 47.0808 11.4795C47.0236 11.4429 46.9571 11.4236 46.8892 11.4237H17.1136C17.0454 11.4229 16.9784 11.4418 16.9207 11.4782C16.863 11.5146 16.817 11.5669 16.7884 11.6288Z" fill="#50AF95"/>
<path fill-rule="evenodd" clip-rule="evenodd" d="M35.0368 31.9012C34.8671 31.914 33.9904 31.9663 32.0345 31.9663C30.4789 31.9663 29.3745 31.9196 28.987 31.9012C22.9753 31.6368 18.4881 30.5903 18.4881 29.3373C18.4881 28.0844 22.9753 27.0393 28.987 26.7706V30.859C29.3801 30.8873 30.5058 30.9537 32.0614 30.9537C33.9281 30.9537 34.8629 30.876 35.0312 30.8604V26.7734C41.0301 27.0407 45.5075 28.0872 45.5075 29.3373C45.5075 30.5875 41.0316 31.634 35.0312 31.8998L35.0368 31.9012ZM35.0368 26.3506V22.6921H43.4088V17.1132H20.615V22.6921H28.9856V26.3492C22.1819 26.6617 17.0654 28.0094 17.0654 29.6244C17.0654 31.2394 22.1819 32.5857 28.9856 32.8996V44.6232H35.0354V32.8954C41.8235 32.5829 46.9315 31.2366 46.9315 29.623C46.9315 28.0094 41.8277 26.6631 35.0354 26.3492L35.0368 26.3506Z" fill="white"/>
</svg>

<svg xmlns="http://www.w3.org/2000/svg" width="64" height="65" fill="none" viewBox="0 0 64 65"><rect width="64" height="64" y=".304" fill="#fff" rx="32"/><rect width="63" height="63" x=".5" y=".804" stroke="#070B14" stroke-opacity=".15" rx="31.5"/><path fill="#50AF95" fill-rule="evenodd" d="M16.788 11.629 8.036 30.013a.36.36 0 0 0 .076.416l23.638 22.65a.36.36 0 0 0 .5 0L55.888 30.43a.36.36 0 0 0 .076-.415L47.212 11.63a.35.35 0 0 0-.323-.206H17.114a.35.35 0 0 0-.326.205" clip-rule="evenodd"/><path fill="#fff" fill-rule="evenodd" d="M35.037 31.901c-.17.013-1.047.065-3.002.065-1.556 0-2.66-.046-3.048-.065-6.012-.264-10.499-1.31-10.499-2.564 0-1.253 4.487-2.298 10.499-2.566v4.088c.393.028 1.519.095 3.074.095 1.867 0 2.802-.078 2.97-.094v-4.087c6 .268 10.477 1.314 10.477 2.564S41.032 31.634 35.03 31.9zm0-5.55v-3.659h8.372v-5.579H20.615v5.58h8.37v3.656c-6.803.313-11.92 1.66-11.92 3.275s5.117 2.962 11.92 3.276v11.723h6.05V32.895c6.789-.312 11.897-1.658 11.897-3.272s-5.104-2.96-11.897-3.274z" clip-rule="evenodd"/></svg>
